X:1
T:Aus Gnaden Soll Ich Selig Werden, 98.98.88
T:Justin Heinrich Knecht, 1796
T:Aus Gnaden Soll Ich Selig Werden, 98.98.88
T:Public Domain
C:Justin Heinrich Knecht, 1796
Z:Public Domain
%%score 1 ( 2 3 )
L:1/8
M:4/4
K:A
V:1 treble 
V:2 bass 
V:3 bass 
V:1
 [CE]2 | [CA]2 [B,G]2 [EB]2 [CA]2 | [Dd]2 [FB]2 [EG]2 [CA]2- | [CA]2 [^DA]2 [EG]2 [DF]2 | %4
 [EB]2 [Ec]2 [EG]2 [^DF]2 | [B,E]6 [CE]2 | [CA]2 [B,G]2 [EB]2 [CA]2 | [Dd]2 [FB]2 [EG]2 [CA]2- | %8
 [CA]2 [^DA]2 [EG]2 [DF]2 | [EB]2 [Ec]2 [EG]2 [^DF]2 | [B,E]6 [B,E]2 | [B,F]2 [B,G]2 [CA]2 [CA]2 | %12
 [Dd]2 [Ec]2 [EB]4- | [EB]2 [Ed]2 [Ec]2 [EB]2 | [Ee]2 [Fd]2 [Ec]2 [EB]2 | [CA]6 |] %16
V:2
 [A,,E,]2 | [A,,E,]2 [E,,E,]2 [E,,G,]2 [A,,A,]2 | [B,,F,]2 [D,B,]2 [E,B,]2 [A,,A,]2- | %3
 [A,,A,]2 [F,A,]2 [E,B,]2 [B,,B,]2 | [G,,B,]2 [A,,A,]2 (G,A,) [B,,B,]2 | [E,G,]6 [A,,E,]2 | %6
 [A,,E,]2 [E,,E,]2 [E,,G,]2 [A,,A,]2 | [B,,F,]2 [D,B,]2 [E,B,]2 [A,,A,]2- | %8
 [A,,A,]2 [F,A,]2 [E,B,]2 [B,,B,]2 | [G,,B,]2 [A,,A,]2 [B,,G,]2 [B,,B,]2 | [E,G,]6 [E,G,]2 | %11
 [_E,F,]2 =E,2 [A,,E,]2 [E,,F,]2 | [B,,F,]2 [C,A,]2 [E,G,]4- | [E,G,]2 [G,,E,]2 [A,,E,]2 [B,,G,]2 | %14
 [C,A,]2 [D,A,]2 [E,A,]2 [E,G,]2 | [A,,A,]6 |] %16
V:3
 x2 | x8 | x8 | x8 | x4 B,,2 x2 | x8 | x8 | x8 | x8 | x8 | x8 | x2 E,2 x4 | x8 | x8 | x8 | x6 |] %16

